X: 1
T:P\'erigourdine
M:4/4
L:1/8
Q:60
C:Traditionnel
R:Divers
A:Bretagne
H:Festival Boqueho Mai 1998
Z:J.M. HENRY <Jmarchenry:aol.COM>
K:G
B>G Bd dc/2B/2 AA | BG Bd dc/2B/2 A2 |\
BG Bd dc/2B/2 AA | BG Bd dc/2B/2 A2- A2 | 
G |\
AB G2 A>G FG | AB G2 A2 GG |\
AB G2 A>G FG | AB G2 A2 G4 |]
